src/icons/ios-finger-print.svg

<?xml version="1.0" encoding="UTF-8"?>
<svg width="512px" height="512px" viewBox="0 0 512 512" version="1.1" xmlns="http://www.w3.org/2000/svg" xmlns:xlink="http://www.w3.org/1999/xlink">
    <!-- Generator: Sketch 62 (91390) - https://sketch.com -->
    <title>ios-finger-print</title>
    <desc>Created with Sketch.</desc>
    <g id="ios-finger-print" stroke="none" stroke-width="1" fill="none" fill-rule="evenodd">
        <path d="M450.8,230.05 C442.2,205.65 430.5,185.15 417.8,172.55 C415.2,169.95 411.8,168.55 408.1,168.55 C404.4,168.55 401,169.95 398.4,172.55 C393.1,177.85 393.1,186.55 398.4,191.95 C408.3,201.85 418,219.35 425.2,240.05 C432.5,261.25 436.6,283.65 436.6,303.15 C436.6,306.15 436.5,310.75 436.4,313.25 C436.2,316.95 437.5,320.35 440,323.05 C442.5,325.75 445.8,327.35 449.5,327.45 L450.1,327.45 C457.4,327.45 463.4,321.75 463.8,314.35 C463.9,311.25 464,306.25 464,303.05 C464,280.25 459.3,254.25 450.8,230.05 L450.8,230.05 Z M143,158.65 C145.9,158.65 148.6,157.75 151,156.05 C180.9,134.65 217.2,123.35 256,123.35 C296.8,123.35 336.1,138.15 369.7,166.15 C372.2,168.15 375.3,169.35 378.5,169.35 C382.6,169.35 386.4,167.55 389,164.45 C393.8,158.65 393,150.05 387.3,145.15 C348.6,113.05 303.3,96.05 256,96.05 C211.4,96.05 169.6,109.15 135,133.85 C132,135.95 130.1,139.15 129.5,142.75 C128.9,146.35 129.7,149.95 131.9,152.95 C134.4,156.55 138.6,158.65 143,158.65 L143,158.65 Z M75.4,303.05 C75.4,259.35 91.2,217.25 119.9,184.35 C122.3,181.55 123.5,178.05 123.2,174.45 C123,170.85 121.3,167.45 118.5,165.05 C116,162.85 112.8,161.65 109.5,161.65 C105.5,161.65 101.8,163.35 99.2,166.35 C66.2,204.25 48,252.75 48,303.05 C48,335.85 53.9,361.85 63.4,393.25 C65.2,399.05 70.4,402.95 76.5,402.95 C77.8,402.95 79.2,402.75 80.5,402.35 C84,401.25 86.9,398.95 88.6,395.75 C90.3,392.55 90.7,388.85 89.6,385.35 C80.8,356.35 75.4,332.55 75.4,303.05 L75.4,303.05 Z" id="Shape" fill="#000000" fill-rule="nonzero"></path>
        <path d="M355.7,120.2 C328.4,96.5 295,84 259,84 C210.7,84 167.6,101.8 137.5,134.1 C108.8,164.9 94.7,205.8 97.8,249.2 C100.1,281.9 103.8,299.9 107.1,315.8 C111.4,336.9 114.8,353.6 112.2,399.9 C111.8,406.6 115.9,412.6 122.2,414.5 C123.4,414.9 124.5,415 125.8,415 C133,415 139,409.3 139.5,402.1 C142.4,351.7 138.7,333.4 134,310.2 C130.9,295.1 127.4,278 125.2,247.1 C122.6,211.4 134.2,177.8 157.6,152.6 C182.4,125.9 218.5,111.2 259,111.2 C288.3,111.2 315.5,121.4 337.7,140.7 C360,160 376.9,188.1 386.7,221.8 C398.1,261.1 401.2,311.1 395.8,366.3 C395.1,373.8 400.6,380.5 408.1,381.3 C408.5,381.3 409,381.4 409.4,381.4 C416.5,381.4 422.3,376.1 423,369 C428.8,310.3 425.3,256.8 412.9,214.2 C401.8,175.6 382,143 355.7,120.2 L355.7,120.2 Z" id="Path" fill="#000000" fill-rule="nonzero"></path>
        <path d="M373.5,218.7 C367.6,181.2 353.6,149.9 332.9,128.1 C312.1,106.1 285.5,94.4 256,94.4 C237,94.4 218.3,98.5 201.9,106.4 C198.2,108.2 195.5,111.5 194.5,115.5 C193.5,119.6 194.4,123.8 197,127.1 C199.6,130.5 203.5,132.4 207.8,132.4 C209.9,132.4 211.8,131.9 213.7,131.1 C226.3,125.1 240.9,121.9 255.9,121.9 C278.3,121.9 298.4,131.1 314.2,148.5 C330.3,166.3 341.5,192.1 346.3,223.1 C351,252.7 353.3,276.6 353.4,296.2 C353.6,335.9 348.6,368.9 348.6,369.3 C348,372.9 348.9,376.5 351.1,379.5 C353.3,382.5 356.4,384.4 360,385 C360.7,385.1 361.4,385.2 362.1,385.2 C368.9,385.2 374.6,380.3 375.6,373.6 C375.8,372.2 381,338.4 380.8,296.1 C380.8,274.8 378.4,249.6 373.5,218.7 Z M185.3,154.7 C189.3,148.9 188.2,141.1 182.8,136.5 C180.3,134.4 177.2,133.3 174,133.3 C169.5,133.3 165.3,135.5 162.7,139.2 C148,160.7 143,188.3 148.3,219 C157.2,270.3 165.2,330.1 157.7,384 C157.2,387.8 158.2,391.7 160.6,394.7 C162.9,397.7 166.3,399.5 170,399.8 C170.4,399.8 170.8,399.9 171.2,399.9 C178,399.9 183.8,394.8 184.7,388.1 C192.9,330.4 184.5,267.9 175.2,214.3 C171.1,190.5 174.5,170.4 185.3,154.7 L185.3,154.7 Z M317.5,339.2 L317,339.2 C309.4,339.5 303.5,345.8 303.8,353.4 C303.8,353.6 304.4,371.3 301.2,388.1 C299.9,395 303.8,401.8 310.3,403.9 C311.7,404.3 313.1,404.6 314.6,404.6 C321.2,404.6 326.8,399.9 328,393.5 C331.8,373.4 331.1,353.3 331.1,352.4 C330.9,344.9 324.9,339.2 317.5,339.2 L317.5,339.2 Z" id="Shape" fill="#000000" fill-rule="nonzero"></path>
        <path d="M294.6,129.85 C283.4,119.35 269.4,113.75 254.1,113.75 C234.3,113.75 217.4,121.05 206.5,134.25 C198.2,144.35 189.5,163.05 195.6,194.25 C207.9,256.75 210.6,315.85 203.7,369.85 C202.7,377.35 208.1,384.25 215.5,385.15 C216.1,385.25 216.7,385.25 217.2,385.25 C224.1,385.25 229.9,380.15 230.8,373.25 C238.1,316.25 235.3,254.25 222.5,188.85 C219.3,172.45 221.1,159.55 227.6,151.55 C233.2,144.75 242.6,141.05 254,141.05 C279,141.05 289.1,168.65 292.3,180.45 C299.2,206.15 303.2,243.45 303.8,288.15 C303.9,295.55 310,301.65 317.5,301.65 L317.7,301.65 C321.3,301.55 324.7,300.15 327.3,297.55 C329.8,294.95 331.2,291.45 331.2,287.85 C330.5,240.85 326.2,201.35 318.7,173.45 C313.8,154.95 305.6,140.25 294.6,129.85 L294.6,129.85 Z" id="Path" fill="#000000" fill-rule="nonzero"></path>
        <path d="M265.2,144.75 C263.1,139.65 258.1,136.25 252.5,136.25 C250.7,136.25 248.9,136.65 247.3,137.25 C240.3,140.15 237,148.15 239.9,155.15 C246.5,171.15 251.7,201.35 254,237.95 C256.4,274.85 255.7,314.85 252,347.55 C251.6,351.15 252.6,354.75 254.9,357.65 C257.2,360.55 260.4,362.25 264.1,362.65 C264.6,362.75 265.1,362.75 265.6,362.75 C272.6,362.75 278.4,357.55 279.2,350.55 C283.1,315.05 283.8,273.95 281.2,234.75 C278.7,195.45 273,163.45 265.2,144.75 L265.2,144.75 Z" id="Path" fill="#000000" fill-rule="nonzero"></path>
    </g>
</svg>

<svg xmlns="http://www.w3.org/2000/svg" width="512" height="512" viewBox="0 0 512 512">
    <path d="M450.8 230.05c-8.6-24.4-20.3-44.9-33-57.5-2.6-2.6-6-4-9.7-4-3.7 0-7.1 1.4-9.7 4-5.3 5.3-5.3 14 0 19.4 9.9 9.9 19.6 27.4 26.8 48.1 7.3 21.2 11.4 43.6 11.4 63.1 0 3-.1 7.6-.2 10.1-.2 3.7 1.1 7.1 3.6 9.8 2.5 2.7 5.8 4.3 9.5 4.4h.6c7.3 0 13.3-5.7 13.7-13.1.1-3.1.2-8.1.2-11.3 0-22.8-4.7-48.8-13.2-73zM143 158.65c2.9 0 5.6-.9 8-2.6 29.9-21.4 66.2-32.7 105-32.7 40.8 0 80.1 14.8 113.7 42.8 2.5 2 5.6 3.2 8.8 3.2 4.1 0 7.9-1.8 10.5-4.9 4.8-5.8 4-14.4-1.7-19.3-38.7-32.1-84-49.1-131.3-49.1-44.6 0-86.4 13.1-121 37.8-3 2.1-4.9 5.3-5.5 8.9-.6 3.6.2 7.2 2.4 10.2 2.5 3.6 6.7 5.7 11.1 5.7zm-67.6 144.4c0-43.7 15.8-85.8 44.5-118.7 2.4-2.8 3.6-6.3 3.3-9.9-.2-3.6-1.9-7-4.7-9.4-2.5-2.2-5.7-3.4-9-3.4-4 0-7.7 1.7-10.3 4.7-33 37.9-51.2 86.4-51.2 136.7 0 32.8 5.9 58.8 15.4 90.2 1.8 5.8 7 9.7 13.1 9.7 1.3 0 2.7-.2 4-.6 3.5-1.1 6.4-3.4 8.1-6.6 1.7-3.2 2.1-6.9 1-10.4-8.8-29-14.2-52.8-14.2-82.3z"/>
    <path d="M355.7 120.2C328.4 96.5 295 84 259 84c-48.3 0-91.4 17.8-121.5 50.1-28.7 30.8-42.8 71.7-39.7 115.1 2.3 32.7 6 50.7 9.3 66.6 4.3 21.1 7.7 37.8 5.1 84.1-.4 6.7 3.7 12.7 10 14.6 1.2.4 2.3.5 3.6.5 7.2 0 13.2-5.7 13.7-12.9 2.9-50.4-.8-68.7-5.5-91.9-3.1-15.1-6.6-32.2-8.8-63.1-2.6-35.7 9-69.3 32.4-94.5 24.8-26.7 60.9-41.4 101.4-41.4 29.3 0 56.5 10.2 78.7 29.5 22.3 19.3 39.2 47.4 49 81.1 11.4 39.3 14.5 89.3 9.1 144.5-.7 7.5 4.8 14.2 12.3 15 .4 0 .9.1 1.3.1 7.1 0 12.9-5.3 13.6-12.4 5.8-58.7 2.3-112.2-10.1-154.8-11.1-38.6-30.9-71.2-57.2-94z"/>
    <path d="M373.5 218.7c-5.9-37.5-19.9-68.8-40.6-90.6-20.8-22-47.4-33.7-76.9-33.7-19 0-37.7 4.1-54.1 12-3.7 1.8-6.4 5.1-7.4 9.1-1 4.1-.1 8.3 2.5 11.6 2.6 3.4 6.5 5.3 10.8 5.3 2.1 0 4-.5 5.9-1.3 12.6-6 27.2-9.2 42.2-9.2 22.4 0 42.5 9.2 58.3 26.6 16.1 17.8 27.3 43.6 32.1 74.6 4.7 29.6 7 53.5 7.1 73.1.2 39.7-4.8 72.7-4.8 73.1-.6 3.6.3 7.2 2.5 10.2 2.2 3 5.3 4.9 8.9 5.5.7.1 1.4.2 2.1.2 6.8 0 12.5-4.9 13.5-11.6.2-1.4 5.4-35.2 5.2-77.5 0-21.3-2.4-46.5-7.3-77.4zm-188.2-64c4-5.8 2.9-13.6-2.5-18.2-2.5-2.1-5.6-3.2-8.8-3.2-4.5 0-8.7 2.2-11.3 5.9-14.7 21.5-19.7 49.1-14.4 79.8 8.9 51.3 16.9 111.1 9.4 165-.5 3.8.5 7.7 2.9 10.7 2.3 3 5.7 4.8 9.4 5.1.4 0 .8.1 1.2.1 6.8 0 12.6-5.1 13.5-11.8 8.2-57.7-.2-120.2-9.5-173.8-4.1-23.8-.7-43.9 10.1-59.6zm132.2 184.5h-.5c-7.6.3-13.5 6.6-13.2 14.2 0 .2.6 17.9-2.6 34.7-1.3 6.9 2.6 13.7 9.1 15.8 1.4.4 2.8.7 4.3.7 6.6 0 12.2-4.7 13.4-11.1 3.8-20.1 3.1-40.2 3.1-41.1-.2-7.5-6.2-13.2-13.6-13.2z"/>
    <path d="M294.6 129.85c-11.2-10.5-25.2-16.1-40.5-16.1-19.8 0-36.7 7.3-47.6 20.5-8.3 10.1-17 28.8-10.9 60 12.3 62.5 15 121.6 8.1 175.6-1 7.5 4.4 14.4 11.8 15.3.6.1 1.2.1 1.7.1 6.9 0 12.7-5.1 13.6-12 7.3-57 4.5-119-8.3-184.4-3.2-16.4-1.4-29.3 5.1-37.3 5.6-6.8 15-10.5 26.4-10.5 25 0 35.1 27.6 38.3 39.4 6.9 25.7 10.9 63 11.5 107.7.1 7.4 6.2 13.5 13.7 13.5h.2c3.6-.1 7-1.5 9.6-4.1 2.5-2.6 3.9-6.1 3.9-9.7-.7-47-5-86.5-12.5-114.4-4.9-18.5-13.1-33.2-24.1-43.6z"/>
    <path d="M265.2 144.75c-2.1-5.1-7.1-8.5-12.7-8.5-1.8 0-3.6.4-5.2 1-7 2.9-10.3 10.9-7.4 17.9 6.6 16 11.8 46.2 14.1 82.8 2.4 36.9 1.7 76.9-2 109.6-.4 3.6.6 7.2 2.9 10.1 2.3 2.9 5.5 4.6 9.2 5 .5.1 1 .1 1.5.1 7 0 12.8-5.2 13.6-12.2 3.9-35.5 4.6-76.6 2-115.8-2.5-39.3-8.2-71.3-16-90z"/>
</svg>
